media/icons/block1/Дизайн.svg

<svg width="70" height="70" viewBox="0 0 70 70" fill="none" xmlns="http://www.w3.org/2000/svg">
<path d="M8.74997 50.3125V61.25H19.6875L51.9458 28.9625L41.0083 18.025L8.74997 50.3125ZM65.9458 53.55L53.55 65.9458L38.3833 50.7792L43.5458 45.6167L46.4625 48.5333L53.6666 41.3L57.8083 45.4417L53.55 49.5833L56.6416 52.5L60.7833 48.4167L65.9458 53.55ZM19.2791 31.5875L4.05414 16.45L16.45 4.05417L21.5833 9.21667L14.3791 16.45L17.5 19.5417L24.675 12.3083L28.8166 16.45L24.675 20.5625L27.5916 23.4792L19.2791 31.5875ZM60.4041 20.4167C61.5416 19.2792 61.5416 17.5 60.4041 16.3042L53.5791 9.59584C52.5 8.45834 50.6041 8.45834 49.4666 9.59584L44.1 14.9333L55.0375 25.8708L60.4041 20.4167Z" fill="#378BC5"/>
</svg>

<svg xmlns="http://www.w3.org/2000/svg" width="70" height="70" fill="none" viewBox="0 0 70 70"><path fill="#378bc5" d="M8.75 50.313V61.25h10.938l32.258-32.287-10.938-10.938zm57.196 3.237L53.55 65.946 38.383 50.779l5.163-5.162 2.916 2.916 7.205-7.233 4.141 4.142-4.258 4.141 3.092 2.917 4.141-4.083zM19.279 31.588 4.054 16.45 16.45 4.054l5.133 5.163-7.204 7.233 3.121 3.092 7.175-7.234 4.142 4.142-4.142 4.113 2.917 2.916zm41.125-11.171c1.138-1.138 1.138-2.917 0-4.113L53.58 9.596c-1.079-1.138-2.975-1.138-4.112 0L44.1 14.933l10.938 10.938z"/></svg>
